wedding/public/wood.svg

<svg width="120" height="39" viewBox="0 0 120 39" fill="none" xmlns="http://www.w3.org/2000/svg">
<g clip-path="url(#clip0_4241_42538)">
<path d="M89.5538 36.7495C89.7169 35.1988 88.593 33.7992 87.1191 33.4523C85.9863 33.1855 84.1062 33.4642 83.2878 34.4871C82.066 33.6866 80.8146 32.9749 79.5335 32.3582C80.5121 32.4976 81.4937 32.3908 82.2499 31.6436C83.2551 30.6533 82.9883 29.0996 82.0512 28.1626C80.9984 27.11 79.323 27.0566 78.0923 27.8335C76.9565 28.551 76.4732 29.8497 76.6303 31.1218C64.5906 26.6296 50.5788 28.8772 37.7028 30.9557C40.3895 30.0869 43.0555 29.1678 45.7036 28.2249C51.1274 26.2946 56.5453 24.2902 61.984 22.3451C61.5273 24.7794 65.2133 26.3479 67.0341 25.07C67.8882 24.471 68.2915 23.3799 67.8259 22.4103C67.4612 21.6542 66.7198 21.2035 65.928 20.9544C74.0534 18.1079 82.241 15.4571 90.6035 13.4557C95.2919 12.3319 100.102 11.5461 104.894 11.5106C103.05 13.5387 106.667 17.5861 109.176 17.1739C110.745 16.9159 110.967 15.4245 110.573 14.0872C110.276 13.0821 109.654 12.2459 108.841 11.6588C110.404 11.7923 111.958 12.0176 113.503 12.3556C114.36 13.4972 115.567 14.4312 116.987 14.5883C118.402 14.7455 119.985 13.8411 119.997 12.2756C120.012 10.6981 118.458 9.67517 117.052 9.52691C116.216 9.43796 114.725 9.42906 113.77 9.93906C113.58 9.93313 113.405 9.98947 113.254 10.1348C113.102 10.283 113.061 10.455 113.058 10.6329C113.049 10.6507 113.043 10.6685 113.034 10.6892C112.839 10.7811 112.69 11.0213 112.818 11.2734C112.847 11.3297 112.883 11.386 112.916 11.4424C104.013 9.66924 94.8145 11.2763 85.9359 13.7611C87.1577 12.5958 87.9435 10.9917 87.6826 9.24819C87.4275 7.54029 86.0694 6.14966 84.2782 6.27716C80.2452 6.56774 81.8199 12.5276 84.2011 14.2563C80.4143 15.3652 76.6956 16.5957 73.0926 17.7551C65.845 20.0886 58.6953 22.772 51.5248 25.3784C51.5574 25.3161 51.5812 25.2449 51.593 25.1678C52.7466 23.7594 52.4619 21.417 50.4068 20.7528C49.2444 20.3762 48.3132 21.2687 48.1116 22.3955C48.0137 22.947 48.0938 23.5341 48.337 24.0352C48.6068 24.5867 49.9472 25.3606 49.7752 26.0099C44.3188 27.9788 38.8416 29.8823 33.2873 31.525C38.7585 28.0707 43.8562 24.0381 48.4496 19.463C48.5861 19.3266 48.7165 19.1872 48.85 19.0479C49.0665 19.0923 49.2978 18.953 49.3422 18.7543C49.5617 18.7128 49.6862 18.4608 49.618 18.2414C51.0474 16.7025 52.4144 15.045 53.7934 13.3904C53.8883 13.4201 53.998 13.4112 54.1077 13.346C56.1272 12.1273 58.2416 14.6773 60.35 13.6543C61.5036 13.0969 62.0729 11.2734 61.5273 10.1051C60.9283 8.82418 59.0066 8.9072 57.8857 9.28377C57.5714 9.39052 57.2808 9.53284 57.005 9.69592C58.6864 7.88128 60.4775 6.20896 62.5 4.86577C62.6186 4.8806 62.7461 4.83908 62.838 4.75606C64.2318 5.48548 65.928 5.96879 67.2654 4.88356C68.3567 3.99699 68.4664 2.27427 67.6776 1.15346C66.8206 -0.0651967 65.0591 -0.3113 63.787 0.355848C62.5207 1.02003 61.978 2.41363 62.0759 3.77165C61.981 3.89915 61.9543 4.07705 62.0344 4.22531C57.1147 7.51361 53.6688 12.7263 49.6744 17.0612C50.1993 14.8285 47.8566 12.5572 45.668 14.0161C44.6687 14.6832 44.4374 15.973 44.9712 17.0168C45.2618 17.5831 45.7629 18.016 46.3442 18.274C46.7712 18.4637 47.5986 18.443 48.159 18.6209C42.8835 23.9255 36.9378 28.5006 30.5057 32.2959C30.2151 32.376 29.9215 32.459 29.6309 32.5391C29.5241 32.4768 29.3936 32.4709 29.2661 32.5836C29.2128 32.628 29.1623 32.6518 29.1119 32.6844C28.9992 32.714 28.8866 32.7496 28.7739 32.7793C28.7412 32.7793 28.7205 32.7941 28.6819 32.7881C28.5426 32.7674 28.4328 32.8178 28.3498 32.8979C28.1066 32.9631 27.8635 33.0372 27.6203 33.0995C18.7091 35.3974 9.56367 36.6843 0.355936 36.0557C-0.148191 36.0201 -0.0977783 36.8118 0.400418 36.8444C10.0648 37.5056 19.5483 36.029 28.8213 33.5798C29.0497 33.5739 29.2632 33.5205 29.4619 33.4079C29.6783 33.3485 29.8918 33.2892 30.1083 33.2299C30.218 33.2922 30.3545 33.31 30.4968 33.2299C30.6065 33.1677 30.7103 33.0995 30.82 33.0343C31.336 32.889 31.855 32.7466 32.368 32.5954C34.4497 32.2781 36.576 31.9312 38.7319 31.5814C38.4531 32.0676 38.4057 32.803 38.5599 33.3456C38.9632 34.7421 40.0248 36.8059 41.6914 36.8918C43.2453 36.9719 44.1201 35.35 43.9095 33.9683C43.7197 32.714 42.9458 31.7118 41.9197 31.0654C49.1347 29.9298 56.6046 28.9661 63.787 29.3664C63.4697 29.7519 63.4044 30.3716 63.4697 30.846C63.4904 30.9883 63.5379 31.1129 63.5764 31.2463C63.5764 31.5962 63.612 31.9283 63.6624 32.1862C63.9916 33.8526 65.1778 35.8985 67.1112 35.857C68.7986 35.8214 69.4658 34.2322 69.1722 32.7496C68.9409 31.5784 68.3122 30.4754 67.4167 29.6955C70.6787 30.1107 73.8606 30.8579 76.9091 32.0587C76.9803 32.121 77.0692 32.1536 77.1582 32.1536C79.1302 32.9483 81.04 33.9475 82.8845 35.1602C82.8252 35.2462 82.8014 35.3589 82.8519 35.4894C83.4954 37.1142 84.6104 38.7628 86.4816 38.9734C87.9406 39.1394 89.3877 38.2825 89.5508 36.7436L89.5538 36.7495ZM115.807 10.2949C115.783 10.3008 115.759 10.3067 115.733 10.3156C115.724 10.3127 115.715 10.3067 115.706 10.3038C115.739 10.3038 115.774 10.2978 115.807 10.2978V10.2949ZM114.206 11.0332C114.167 11.0539 114.128 11.0688 114.093 11.0895C114.034 11.0095 114.04 10.968 114.206 11.0332ZM116.587 12.3704C116.53 12.3527 116.471 12.3408 116.415 12.323C116.418 12.3141 116.424 12.3082 116.427 12.2993C116.738 12.3675 117.052 12.4268 117.367 12.4802C117.118 12.4802 116.812 12.3853 116.59 12.3734L116.587 12.3704ZM114.671 11.7241C114.716 11.7063 114.76 11.6885 114.805 11.6707C114.825 11.7656 114.876 11.8516 114.962 11.9109C114.905 11.896 114.852 11.8782 114.796 11.8634C114.754 11.816 114.713 11.7685 114.671 11.7211V11.7241ZM117.085 13.1947C117.085 13.1947 117.097 13.1829 117.103 13.177C117.782 13.1947 118.452 13.1799 118.743 12.6403C118.811 12.6165 118.867 12.578 118.909 12.5276C118.861 12.7796 118.553 13.0109 118.239 13.1265C117.868 13.2629 117.471 13.2689 117.085 13.1947ZM107.373 14.4223C107.459 14.4816 107.551 14.4875 107.634 14.4638C107.643 14.4697 107.652 14.4757 107.661 14.4846C107.685 14.5261 107.714 14.5617 107.738 14.6002C107.504 14.5409 107.284 14.4935 107.041 14.4638C107.017 14.4638 107.002 14.4727 106.979 14.4757C106.893 14.3422 106.807 14.2118 106.73 14.0754C106.721 14.0606 106.715 14.0517 106.709 14.0398C106.934 14.1525 107.157 14.277 107.373 14.4223ZM108.295 12.2548C108.295 12.2548 108.298 12.2489 108.298 12.2459C108.31 12.2548 108.322 12.2607 108.334 12.2696C108.322 12.2637 108.307 12.2607 108.292 12.2548H108.295ZM105.232 12.5543C105.268 12.6699 105.318 12.7826 105.395 12.8804C105.371 12.9783 105.357 13.0821 105.354 13.1888C105.336 13.8826 105.799 14.5587 106.329 15.1636C105.546 14.3719 105.019 13.3578 105.232 12.5543ZM109.915 15.6261C109.912 15.5846 109.903 15.5461 109.897 15.5075C109.912 15.4304 109.938 15.3563 109.944 15.2762C109.947 15.208 109.938 15.131 109.935 15.0598C109.941 15.0598 109.95 15.0598 109.956 15.0539C109.968 15.2555 109.962 15.4482 109.915 15.6261ZM84.5184 11.9168C84.5125 11.896 84.5036 11.8753 84.4977 11.8545C84.5006 11.8278 84.5184 11.8041 84.5155 11.7745C84.5333 11.8041 84.5511 11.8338 84.5688 11.8664C84.5629 11.8931 84.557 11.9227 84.5511 11.9494C84.5392 11.9405 84.5303 11.9286 84.5214 11.9198L84.5184 11.9168ZM85.9774 9.91831C85.9774 9.91831 85.9774 9.91831 85.9804 9.91831V9.92424C85.9804 9.92424 85.9804 9.9183 85.9774 9.91534V9.91831ZM83.4805 8.31419C83.4598 8.30529 83.442 8.29343 83.4183 8.2875C83.436 8.2786 83.4509 8.27564 83.4657 8.26674C83.4687 8.28157 83.4746 8.29639 83.4805 8.31122V8.31419ZM86.5972 8.61366C86.5972 8.5425 86.5794 8.46837 86.5231 8.40017C86.4994 8.37052 86.4756 8.3468 86.4489 8.32011C86.4608 8.2875 86.4727 8.25785 86.4816 8.22227C86.5498 8.33494 86.6061 8.45354 86.6595 8.57511C86.6387 8.58697 86.615 8.59883 86.5972 8.61366ZM83.3827 11.81C83.4094 11.9109 83.4212 12.0176 83.4538 12.1184C83.3412 11.9197 83.2344 11.7122 83.1395 11.4987C83.2136 11.6084 83.2996 11.7092 83.3827 11.813V11.81ZM65.8064 24.6993C65.8064 24.6993 65.8331 24.6993 65.845 24.7023C65.8302 24.7023 65.8183 24.7082 65.8064 24.7112C65.8064 24.7082 65.8064 24.7023 65.8064 24.6993ZM66.7494 24.1953C66.788 24.1864 66.8295 24.1775 66.8681 24.1686C66.8414 24.1953 66.8117 24.222 66.7821 24.2486C66.7732 24.2309 66.7613 24.2131 66.7494 24.1953ZM63.0723 21.9655C63.0664 21.9863 63.0634 22.007 63.0604 22.0248C62.8766 22.1078 62.7817 22.3391 62.8647 22.5407C62.8321 22.517 62.7965 22.4933 62.7639 22.4666C62.7728 22.4132 62.7757 22.3628 62.7906 22.3095C62.8173 22.2146 62.8024 22.1375 62.7728 22.0693C62.8706 22.0337 62.9715 22.0011 63.0693 21.9655H63.0723ZM63.1613 23.792C63.268 23.8632 63.3866 23.9077 63.4993 23.9699C63.4845 24.0114 63.4845 24.05 63.4845 24.0945C63.3659 24.0025 63.2561 23.9017 63.1613 23.792ZM50.8991 21.9388C50.8665 21.9448 50.8309 21.9477 50.7983 21.9596C50.7805 21.9477 50.7686 21.9329 50.7508 21.921C50.733 21.8706 50.7063 21.8202 50.6856 21.7698C50.7597 21.8262 50.8339 21.8766 50.8991 21.9418V21.9388ZM49.882 21.4733C49.8197 21.5385 49.7544 21.6038 49.7129 21.6779C49.5439 21.7105 49.3778 21.7758 49.2207 21.8855C49.1643 21.924 49.1258 21.9655 49.0783 22.0041C49.2355 21.7046 49.4964 21.4822 49.882 21.4733ZM56.2755 11.5254C56.3051 11.5254 56.3348 11.5313 56.3644 11.5343C56.2962 11.6203 56.2488 11.7241 56.2162 11.8545C56.1361 11.8604 56.059 11.8604 55.976 11.8753C56.0471 11.7448 56.1361 11.6321 56.2221 11.5135C56.2399 11.5195 56.2547 11.5284 56.2755 11.5284V11.5254ZM57.1058 10.7041C57.0613 10.7041 57.0168 10.71 56.9724 10.71C57.0494 10.6477 57.1177 10.5766 57.2007 10.5202C57.1651 10.5766 57.1355 10.6388 57.1058 10.7011V10.7041ZM54.9558 12.2815C54.8787 12.2874 54.7987 12.2904 54.7186 12.3052C54.858 12.1421 54.9944 11.9791 55.1338 11.8189C55.0656 11.9702 55.0063 12.1243 54.9558 12.2845V12.2815ZM57.6307 12.8775C57.7612 12.8775 57.8946 12.8775 58.0251 12.8715C58.4729 12.9694 58.9207 13.0643 59.3506 13.091C59.2676 13.0999 59.1875 13.1117 59.1045 13.1147C58.5885 13.1236 58.1022 13.0168 57.6336 12.8775H57.6307ZM65.1066 2.94438C65.0858 2.9177 65.068 2.89101 65.0502 2.85839C65.068 2.87026 65.0829 2.88212 65.1007 2.89398C65.1007 2.91177 65.1007 2.92659 65.1036 2.94142L65.1066 2.94438ZM63.526 4.23717C63.526 4.23717 63.526 4.23717 63.523 4.23717H63.526ZM64.0034 1.14753C64.2229 1.00817 64.469 0.919218 64.7211 0.859916C64.4779 0.939973 64.2436 1.07637 64.0331 1.29579C64.0212 1.30765 64.0153 1.32247 64.0034 1.33433C63.8255 1.38177 63.6624 1.4648 63.5112 1.57747C63.6535 1.41735 63.8107 1.26613 64.0034 1.14753ZM62.8736 2.97996C62.8944 3.19642 62.9566 3.40101 63.0575 3.59078C62.9893 3.62932 62.9181 3.6649 62.8528 3.70641C62.835 3.46328 62.838 3.22014 62.8736 2.97996ZM48.8529 16.9515C48.8885 16.913 48.9093 16.8715 48.9389 16.8329C48.9241 16.8952 48.8974 16.9515 48.8767 17.0138C48.8678 16.993 48.8618 16.9723 48.8529 16.9545V16.9515ZM46.9106 14.4253C46.7356 14.4727 46.5725 14.5468 46.4213 14.6417C46.2167 14.6832 46.0298 14.7751 45.8845 14.9234C46.1396 14.6476 46.5013 14.4727 46.9076 14.4253H46.9106ZM45.7837 15.0509C45.6799 15.2021 45.6028 15.386 45.5909 15.6172C45.5909 15.6439 45.5969 15.6676 45.5998 15.6943C45.5435 15.8841 45.5316 16.0798 45.5583 16.2755C45.4486 15.7981 45.5465 15.3771 45.7867 15.0509H45.7837ZM40.0189 34.3508C40.0337 34.3834 40.0485 34.413 40.0633 34.4456C40.0159 34.3952 39.9862 34.333 39.9507 34.2737C39.9714 34.3003 39.9951 34.327 40.0189 34.3508ZM42.2429 32.714C42.2429 32.714 42.2548 32.7051 42.2637 32.7022C42.2874 32.7259 42.3112 32.7466 42.3319 32.7704C42.3023 32.7526 42.2726 32.7318 42.2429 32.714ZM40.6505 35.5131C40.6505 35.5131 40.6535 35.519 40.6564 35.522C40.6564 35.522 40.6505 35.516 40.6505 35.5131ZM88.5099 36.2573C88.5159 36.2751 88.5248 36.2929 88.5277 36.3137C88.5218 36.2959 88.5159 36.2751 88.5099 36.2573ZM85.9063 37.642C85.8677 37.6302 85.8351 37.6094 85.7995 37.5946C85.841 37.556 85.8736 37.5145 85.8974 37.4641C86.0041 37.5382 86.1138 37.6153 86.2265 37.6895C86.1198 37.6746 86.013 37.6717 85.9092 37.642H85.9063ZM87.217 34.3211C87.6855 34.4931 88.1066 34.8311 88.3972 35.2492C88.332 35.2403 88.2697 35.2344 88.2045 35.2255C88.2045 35.0802 88.1452 34.929 88.0206 34.843C87.4809 34.4812 86.8789 34.2559 86.2532 34.164C86.6298 34.1758 86.9738 34.2292 87.217 34.3181V34.3211ZM81.98 29.6837C81.9859 29.6185 81.98 29.5532 81.9741 29.485C82.0215 29.6185 82.0541 29.7519 82.069 29.8853C82.0423 29.8171 82.0215 29.7519 81.98 29.6837ZM80.862 28.299C80.6722 28.2545 80.4736 28.2397 80.2719 28.2456C80.0554 28.1744 79.833 28.13 79.6106 28.1151C80.0376 28.0647 80.4706 28.124 80.862 28.299ZM78.1338 28.806C78.03 28.9661 77.9589 29.1411 77.9262 29.319C77.9203 29.3249 77.9144 29.3279 77.9084 29.3338C77.861 29.3041 77.8106 29.2834 77.7572 29.2745C77.861 29.1055 77.9855 28.9483 78.1338 28.809V28.806ZM67.0875 33.8259C67.0875 33.8111 67.0934 33.7963 67.0875 33.7815C67.0875 33.7726 67.0816 33.7666 67.0816 33.7577C67.1527 33.7904 67.221 33.8408 67.2921 33.8763C67.2476 33.8852 67.1972 33.8852 67.1498 33.8912C67.1261 33.8704 67.1083 33.8467 67.0845 33.8259H67.0875ZM65.7531 31.697C65.7531 31.697 65.7323 31.7266 65.7204 31.7385C65.7086 31.7059 65.6937 31.6762 65.6819 31.6436C65.7056 31.6614 65.7293 31.6792 65.7531 31.694V31.697ZM65.5781 30.5702C65.5781 30.5347 65.5781 30.4991 65.5811 30.4635C65.6315 30.5021 65.676 30.5465 65.7264 30.5851C65.676 30.5791 65.6255 30.5762 65.5751 30.5702H65.5781ZM64.5817 30.2708C64.4542 30.3864 64.3949 30.5702 64.5254 30.7541C64.555 30.7986 64.5728 30.843 64.5906 30.8905C64.5165 30.8371 64.4305 30.8075 64.3474 30.8075C64.3504 30.5762 64.383 30.3716 64.4423 30.2026C64.5076 30.2026 64.5461 30.2352 64.5817 30.2708ZM65.0028 33.4227C65.0176 33.4998 65.0324 33.5739 65.0502 33.648C65.0058 33.5739 64.9672 33.5057 64.9287 33.4316C64.9553 33.4316 64.9761 33.4256 65.0028 33.4227ZM67.1023 30.5376C67.046 30.505 66.9926 30.4724 66.9392 30.4398C66.9303 30.4042 66.9126 30.3746 66.9007 30.3419C66.9689 30.4042 67.0341 30.4724 67.1023 30.5376Z" fill="#6D7C75"/>
</g>
<defs>
<clipPath id="clip0_4241_42538">
<rect width="120" height="39" fill="white"/>
</clipPath>
</defs>
</svg>

<svg xmlns="http://www.w3.org/2000/svg" width="120" height="39" fill="none"><g clip-path="url(#a)"><path fill="#6D7C75" d="M89.554 36.75c.163-1.551-.961-2.95-2.435-3.298-1.133-.267-3.013.012-3.831 1.035a33 33 0 0 0-3.754-2.129c.978.14 1.96.033 2.716-.714 1.005-.99.738-2.544-.199-3.481-1.053-1.053-2.728-1.106-3.959-.33-1.135.718-1.619 2.017-1.462 3.289-12.04-4.492-26.051-2.245-38.927-.166a289 289 0 0 0 8-2.731c5.424-1.93 10.842-3.935 16.281-5.88-.457 2.434 3.23 4.003 5.05 2.725.854-.599 1.257-1.69.792-2.66-.365-.756-1.106-1.207-1.898-1.456 8.125-2.846 16.313-5.497 24.676-7.498 4.688-1.124 9.498-1.91 14.29-1.945-1.844 2.028 1.773 6.075 4.282 5.663 1.569-.258 1.791-1.75 1.397-3.087a4.6 4.6 0 0 0-1.732-2.428c1.563.133 3.117.359 4.662.697.857 1.141 2.064 2.075 3.484 2.232 1.415.158 2.998-.747 3.01-2.312.015-1.578-1.539-2.6-2.945-2.75-.836-.088-2.327-.097-3.282.413a.68.68 0 0 0-.516.196.67.67 0 0 0-.196.498q-.012.027-.024.056c-.195.092-.344.332-.216.584.029.057.065.113.098.17-8.903-1.774-18.101-.167-26.98 2.318 1.222-1.165 2.007-2.77 1.747-4.513-.256-1.708-1.614-3.098-3.405-2.97-4.033.29-2.458 6.25-.077 7.978-3.787 1.11-7.505 2.34-11.108 3.5-7.248 2.333-14.398 5.016-21.568 7.622a.7.7 0 0 0 .068-.21c1.154-1.409.869-3.751-1.186-4.415-1.163-.377-2.094.516-2.295 1.642a2.7 2.7 0 0 0 .225 1.64c.27.552 1.61 1.326 1.438 1.975-5.456 1.969-10.933 3.872-16.488 5.515A88.2 88.2 0 0 0 48.45 19.463q.202-.205.4-.415c.216.044.448-.095.492-.294.22-.041.344-.293.276-.513 1.43-1.538 2.796-3.196 4.175-4.85.095.03.205.02.315-.045 2.02-1.219 4.134 1.331 6.242.308 1.154-.557 1.723-2.38 1.177-3.549-.599-1.28-2.52-1.198-3.641-.821-.315.107-.605.249-.881.412 1.681-1.815 3.472-3.487 5.495-4.83a.43.43 0 0 0 .338-.11c1.394.73 3.09 1.213 4.427.128 1.092-.887 1.201-2.61.413-3.73-.857-1.22-2.619-1.465-3.891-.798-1.266.664-1.809 2.058-1.711 3.416a.43.43 0 0 0-.042.453c-4.92 3.289-8.365 8.501-12.36 12.836.525-2.232-1.817-4.504-4.006-3.045-1 .667-1.23 1.957-.697 3 .29.567.792 1 1.373 1.258.427.19 1.255.169 1.815.347-5.276 5.305-11.221 9.88-17.653 13.675l-.875.243c-.107-.062-.237-.068-.365.045-.053.044-.104.068-.154.1-.113.03-.225.066-.338.095-.033 0-.053.015-.092.01a.38.38 0 0 0-.332.109c-.243.065-.487.14-.73.201-8.91 2.298-18.056 3.585-27.264 2.957-.504-.036-.454.756.044.788 9.665.662 19.148-.815 28.421-3.264.229-.006.442-.06.64-.172l.647-.178c.11.062.247.08.389 0 .11-.062.213-.13.323-.196.516-.145 1.035-.287 1.548-.439 2.082-.317 4.208-.664 6.364-1.014-.279.487-.326 1.222-.172 1.765.403 1.396 1.465 3.46 3.131 3.546 1.554.08 2.43-1.542 2.218-2.924-.19-1.254-.963-2.256-1.99-2.903 7.216-1.135 14.686-2.099 21.868-1.699-.317.386-.383 1.006-.317 1.48.02.142.068.267.106.4 0 .35.036.682.086.94.33 1.667 1.516 3.712 3.45 3.671 1.687-.036 2.354-1.625 2.06-3.107a5.5 5.5 0 0 0-1.755-3.055c3.262.416 6.444 1.163 9.492 2.364.071.062.16.095.25.095a32.6 32.6 0 0 1 5.725 3.006.34.34 0 0 0-.032.33c.643 1.624 1.758 3.273 3.63 3.483 1.459.166 2.906-.69 3.069-2.23zm26.253-26.455-.074.02q-.014-.005-.027-.011c.033 0 .068-.006.101-.006zm-1.601.738q-.06.028-.113.056c-.059-.08-.053-.121.113-.056m2.381 1.337q-.087-.023-.172-.047.006-.012.012-.024.467.102.94.181c-.249 0-.555-.095-.777-.107zm-1.916-.646.134-.053c.02.095.071.18.157.24q-.084-.024-.166-.048l-.125-.142zm2.414 1.47.018-.017c.679.018 1.349.003 1.64-.537a.4.4 0 0 0 .166-.112c-.048.252-.356.483-.67.598-.371.137-.768.143-1.154.069m-9.712 1.228a.3.3 0 0 0 .261.042l.027.02c.024.042.053.078.077.116a5.5 5.5 0 0 0-.697-.136c-.024 0-.039.009-.062.012-.086-.134-.172-.264-.249-.4l-.021-.036c.225.113.448.237.664.382m.922-2.167q.001-.002.003-.01.018.013.036.025-.019-.008-.042-.015zm-3.063.3c.036.115.086.228.163.325a1.5 1.5 0 0 0-.041.309c-.018.694.445 1.37.975 1.975-.783-.792-1.31-1.806-1.097-2.61m4.683 3.071c-.003-.041-.012-.08-.018-.118.015-.078.041-.152.047-.232.003-.068-.006-.145-.009-.216q.01.002.021-.006c.012.201.006.394-.041.572m-25.397-3.71q-.01-.03-.02-.062c.003-.026.02-.05.017-.08l.054.092-.018.083q-.017-.014-.03-.03zm1.46-1.998h.002v.006s0-.006-.003-.009zM83.48 8.314c-.021-.009-.039-.02-.063-.027.018-.008.033-.011.048-.02q.005.023.015.044zm3.116.3a.32.32 0 0 0-.074-.214c-.024-.03-.047-.053-.074-.08.012-.033.024-.062.033-.098.068.113.124.232.177.353-.02.012-.044.024-.062.039m-3.214 3.196c.026.1.038.208.07.308a7 7 0 0 1-.314-.62c.075.11.16.211.244.315zM65.806 24.7s.027 0 .039.002c-.015 0-.027.006-.039.01zm.943-.505.12-.026-.087.08zm-3.677-2.23q-.008.032-.012.06a.403.403 0 0 0-.195.516q-.051-.035-.101-.074c.009-.054.012-.104.027-.157a.34.34 0 0 0-.018-.24q.148-.052.296-.105zm.09 1.827c.106.071.225.116.337.178-.015.041-.015.08-.015.125a2.2 2.2 0 0 1-.323-.303m-12.263-1.853c-.032.006-.068.009-.1.02-.018-.011-.03-.026-.048-.038-.018-.05-.045-.1-.065-.151.074.056.148.107.213.172zm-1.017-.466c-.062.066-.128.13-.17.205a1.3 1.3 0 0 0-.491.207c-.057.039-.095.08-.143.12.157-.3.418-.523.804-.532m6.394-9.948q.045.002.088.01a.8.8 0 0 0-.148.32c-.08.005-.157.005-.24.02.071-.13.16-.243.246-.361.018.006.033.014.053.014zm.83-.82c-.045 0-.09.005-.134.005.077-.062.146-.133.229-.19q-.053.087-.095.181zm-2.15 1.576c-.077.006-.157.01-.237.024q.207-.245.415-.486a4 4 0 0 0-.178.465zm2.675.596q.197.002.394-.006c.448.098.896.193 1.326.22-.083.009-.163.02-.246.024-.516.009-1.003-.098-1.471-.238zm7.476-9.933a1 1 0 0 1-.057-.086l.05.036q-.001.026.004.047zm-1.581 1.293h-.003zm.477-3.09c.22-.139.466-.228.718-.287-.243.08-.477.216-.688.436-.012.012-.018.026-.03.038q-.266.073-.492.243c.142-.16.3-.31.492-.43m-1.13 1.833q.033.325.184.61c-.068.04-.139.075-.204.116a3.3 3.3 0 0 1 .02-.726m-14.02 13.971c.035-.038.056-.08.086-.118-.015.062-.042.119-.062.18-.01-.02-.015-.04-.024-.059zm-1.942-2.526a1.8 1.8 0 0 0-.49.217 1.03 1.03 0 0 0-.536.281 1.64 1.64 0 0 1 1.023-.498zm-1.127.626c-.104.151-.181.335-.193.566 0 .027.006.05.009.077q-.082.287-.042.582c-.11-.478-.011-.899.229-1.225zm-5.765 19.3q.023.047.044.095c-.047-.05-.077-.113-.112-.172q.031.04.068.077m2.224-1.637s.012-.009.02-.012q.037.035.069.068-.045-.027-.09-.056m-1.593 2.8.006.008s-.005-.006-.005-.009m47.86.743c.006.018.015.036.018.057zm-2.604 1.385c-.038-.012-.07-.033-.107-.047a.4.4 0 0 0 .098-.13q.16.111.33.224c-.107-.014-.214-.017-.318-.047zm1.311-3.32c.469.171.89.51 1.18.927l-.193-.024a.46.46 0 0 0-.183-.382 4.3 4.3 0 0 0-1.768-.679c.377.012.72.065.964.154zm-5.237-4.638c.006-.066 0-.13-.006-.199q.072.2.095.4c-.027-.068-.047-.133-.089-.201m-1.118-1.385a2.3 2.3 0 0 0-.59-.053 2.7 2.7 0 0 0-.661-.13c.427-.051.86.008 1.251.183m-2.728.507a1.4 1.4 0 0 0-.208.513l-.018.015a.4.4 0 0 0-.15-.06q.154-.255.376-.465zm-11.046 5.02c0-.015.005-.03 0-.044 0-.01-.006-.015-.006-.024.07.032.139.083.21.118-.044.01-.095.01-.142.015-.024-.02-.042-.044-.066-.065zm-1.335-2.129s-.02.03-.033.041q-.018-.047-.038-.094.035.026.071.05zm-.175-1.127q0-.052.003-.107c.05.04.095.084.145.122l-.15-.015zm-.996-.3c-.128.116-.187.3-.057.484a.6.6 0 0 1 .066.136.42.42 0 0 0-.244-.082q.006-.35.095-.605c.066 0 .104.032.14.068m.42 3.153q.023.114.048.225a4 4 0 0 1-.121-.216c.026 0 .047-.006.074-.01m2.1-2.885-.163-.098c-.009-.036-.026-.065-.038-.098q.1.095.201.196"/></g><defs><clipPath id="a"><path fill="#fff" d="M0 0h120v39H0z"/></clipPath></defs></svg>
